icon/cg/tag.svg

<svg viewBox="0 0 24 24" fill="none" xmlns="http://www.w3.org/2000/svg" height="1em" width="1em">
  <path fill-rule="evenodd" clip-rule="evenodd" d="M2 8V16C2 16.5523 2.44772 17 3 17H16.6202C16.9121 17 17.1895 16.8724 17.3795 16.6508L20.808 12.6508C21.129 12.2763 21.129 11.7237 20.808 11.3492L17.3795 7.34921C17.1895 7.12756 16.9121 7 16.6202 7H3C2.44772 7 2 7.44772 2 8ZM0 8V16C0 17.6569 1.34315 19 3 19H16.6202C17.496 19 18.328 18.6173 18.898 17.9524L22.3265 13.9524C23.2895 12.8289 23.2895 11.1711 22.3265 10.0476L18.898 6.04763C18.328 5.38269 17.496 5 16.6202 5H3C1.34315 5 0 6.34315 0 8Z" fill="currentColor"/>
  <path fill-rule="evenodd" clip-rule="evenodd" d="M15 13C15.5523 13 16 12.5523 16 12C16 11.4477 15.5523 11 15 11C14.4477 11 14 11.4477 14 12C14 12.5523 14.4477 13 15 13ZM15 15C16.6569 15 18 13.6569 18 12C18 10.3431 16.6569 9 15 9C13.3431 9 12 10.3431 12 12C12 13.6569 13.3431 15 15 15Z" fill="currentColor"/>
</svg>

<svg width="24" height="24" fill="none" xmlns="http://www.w3.org/2000/svg"><path fill-rule="evenodd" clip-rule="evenodd" d="M2 8v8a1 1 0 0 0 1 1h13.62a1 1 0 0 0 .76-.35l3.428-4a1 1 0 0 0 0-1.3l-3.428-4a1 1 0 0 0-.76-.35H3a1 1 0 0 0-1 1ZM0 8v8a3 3 0 0 0 3 3h13.62a3 3 0 0 0 2.278-1.048l3.428-4a3 3 0 0 0 0-3.904l-3.428-4A3 3 0 0 0 16.62 5H3a3 3 0 0 0-3 3Z" fill="currentColor"/><path fill-rule="evenodd" clip-rule="evenodd" d="M15 13a1 1 0 1 0 0-2 1 1 0 0 0 0 2Zm0 2a3 3 0 1 0 0-6 3 3 0 0 0 0 6Z" fill="currentColor"/></svg>
